X: 238
T: A Jig For Kim
R: jig
M: 6/8
K: Dmajor
A|dcd edc|def gfe|dff cee|BAB cBA|
dcd edc|def ecA|cee BAB|cBA A2A|
e|fef afe|fef ecA|fef afe|dff ecA|
fef afe|fef ecA|dff ecA|BcB Ad2|

